X:1
T:Title
%%score { ( 1 3 ) | ( 2 4 ) }
L:1/8
Q:1/4=108
M:3/4
K:C
V:1 treble nm="Grand Piano"
V:3 treble 
V:2 bass 
V:4 bass 
V:1
 [EG]2 [CE]2 [DF]2 | [EG]2 [FA]2 [FB]2 | [Ec]2 [FB]2 [FA]2 | [EG]6 | F2 D2 E2 | F2 F4 | A2 G2 F2 | %7
w: Herbert~G.~Tovey * *|||||||
 E6 | [EG]2 [CE]2 [DF]2 | [EG]2 [FA]2 [FB]2 | [Ec]2 [GB]2 [FA]2 | [EG]6 | [D^F]2 [DG]2 [FA]2 | %13
w: ||||||
 [^Fc]2 [DFB]2 [CFA]2 | G2 G2 G2 | G6 | [EG]2 [FA]2 [FB]2 | c6 | d2 c2 A2 | [EG]6 | %20
w: |||||||
 [FG]2 [FA]2 [GB]2 | [Gc]2 [Gd]2 [Ge]2 | [^Fe]2 [Fd]2 [Fc]2 | [Fd]6 | [EG]2 [FA]2 [FB]2 | c6 | %26
w: ||||||
 d2 c2 A2 | [EG]6 | [Ge]2 [Gd]2 [_Bc]2 | [Ad]2 [Ac]2 A2 | G c3 d2 | [Ec]6 |] %32
w: ||||||
V:2
 [C,C]2 [C,G,]2 [C,G,]2 | [C,C]2 [F,C]2 [D,G,]2 | [C,G,]2 [C,C]2 [C,C]2 | [C,C]6 | %4
 [G,B,D]2 [G,B,]2[K:treble] [G,C]2 | [G,B,D]2 [G,B,D]4 | [G,B,F]2 [G,B,E]2[K:bass] [G,D]2 | %7
 [C,G,C]6 | [C,C]2 [C,G,]2 [C,G,]2 | [C,C]2 [F,C]2 [D,G,]2 | [C,G,]2 [C,C]2 [C,C]2 | [C,C]6 | %12
 [D,A,]2 [D,B,]2 [D,C]2 | [D,A,]2 D,2 D,2 | B,2[K:treble] [G,B,D]2 [G,CE]2 | D2 z2 z2 | %16
 [C,C]2 [F,C]2 [D,G,]2 | G,6 | [F,A,F]2 [F,A,F]2 [F,CF]2 | [C,C]6 | [G,B,]2 [G,C]2 [F,D]2 | %21
 [E,C]2 [D,B,]2 [C,C]2 | [D,C]2 [D,B,]2 [D,A,]2 | [G,B,]6 | [C,C]2 [F,C]2 [D,G,]2 | G,6 | %26
 [F,A,F]2 [F,A,F]2 [F,CF]2 | [C,C]6 | [C,C]2 [D,B,]2 [E,C]2 | [F,C]2[K:treble] [F,F]2 [F,CF]2 | %30
 [G,CE] [G,EG]3 [G,B,F]2 | [C,C]6 |] %32
V:3
 x6 | x6 | x6 | x6 | x6 | x6 | x6 | x6 | x6 | x6 | x6 | x6 | x6 | x6 | x6 | z2 B,4 | x6 | %17
 E2 F2 G2 | x6 | x6 | x6 | x6 | x6 | x6 | x6 | E2 F2 G2 | x6 | x6 | x6 | x6 | x6 | x6 |] %32
V:4
 x6 | x6 | x6 | x6 | x4[K:treble] x2 | x6 | x4[K:bass] x2 | x6 | x6 | x6 | x6 | x6 | x6 | x6 | %14
 x2[K:treble] x4 | [G,F]6 | x6 | C,2 D,2 E,2 | x6 | x6 | x6 | x6 | x6 | x6 | x6 | C,2 D,2 E,2 | %26
 x6 | x6 | x6 | x2[K:treble] x4 | x6 | x6 |] %32

